themes/default/assets/images/icons/mid/startup.svg

<?xml version="1.0" encoding="UTF-8"?>
<svg width="100px" height="75px" viewBox="0 0 100 75" version="1.1" xmlns="http://www.w3.org/2000/svg" xmlns:xlink="http://www.w3.org/1999/xlink">
    <!-- Generator: sketchtool 59 (101010) - https://sketch.com -->
    <title>6EC1CFD0-3BE5-406E-8666-E4F49FDF9ED9</title>
    <desc>Created with sketchtool.</desc>
    <g id="Page-1" stroke="none" stroke-width="1" fill="none" fill-rule="evenodd">
        <g id="Icons" transform="translate(-853.000000, -2930.000000)" fill-rule="nonzero">
            <g id="mid-icon-startup" transform="translate(853.000000, 2930.000000)">
                <path d="M63.1881188,67.85 C61.2079208,66.05 58.3267327,65.43 54.5445545,65.98 C53.9850533,64.5190973 53.1812913,63.1660979 52.1683168,61.98 L61.9405941,50.98 C62.1189167,50.6979814 62.0711883,50.3273842 61.8273669,50.1008254 C61.5835456,49.8742667 61.2139191,49.8570576 60.950495,50.06 L48.1386139,64.49 C47.8799909,64.7803504 47.9021099,65.2271535 48.1881188,65.49 C48.3194278,65.5987367 48.4836679,65.6587367 48.6534653,65.66 C48.8493115,65.6591169 49.0359144,65.5757556 49.1683168,65.43 L51.2376238,63.09 C52.2970297,64.38 54.6534653,67.73 53.4158416,71.09 C53.3524959,71.2636347 53.3608577,71.4556912 53.4390492,71.6230397 C53.5172408,71.7903882 53.6587085,71.9190025 53.8316832,71.98 C53.9102455,71.9944451 53.9907446,71.9944451 54.0693069,71.98 C54.3560792,71.9812936 54.6131263,71.8015584 54.7128713,71.53 C55.2007813,70.1670601 55.2833797,68.6897542 54.950495,67.28 C58.1881188,66.84 60.6435644,67.35 62.2475248,68.81 C63.5320361,70.0789821 64.2866746,71.796582 64.3564356,73.61 L1.38613861,73.61 L1.38613861,23.28 C1.53196165,21.6374732 2.23087597,20.0950742 3.36633663,18.91 C5.74009153,16.4370701 9.39092842,15.7259677 12.5049505,17.13 C14.4918362,17.9356527 16.0490023,19.5519767 16.7920792,21.58 C17.4003364,23.9143772 17.183243,26.3899424 16.1782178,28.58 C14.9729427,27.9682547 13.6742417,27.5659587 12.3366337,27.39 C11.9611663,27.3419373 11.6154188,27.6027359 11.5544554,27.98 C11.5075904,28.3604341 11.7724285,28.7081665 12.1485149,28.76 C15.1829893,29.0505807 17.8854128,30.8204278 19.3861386,33.5 L19.3861386,33.5 C19.406237,33.6115219 19.4618652,33.7133563 19.5445545,33.79 C20.0995509,34.8566909 20.4616606,36.0148384 20.6138614,37.21 C20.6495836,37.5690309 20.9496687,37.8418083 21.3069307,37.84 L21.3663366,37.84 C21.7456179,37.8081306 22.0284954,37.4733185 22,37.09 C21.8383967,35.9816434 21.5251738,34.9013243 21.0693069,33.88 C23.4920491,33.6286264 25.9075099,34.4200493 27.7227723,36.06 C28.009901,36.3 28.2970297,36.56 28.5742574,36.84 L25.950495,38.52 C25.6845535,38.6824884 25.5607296,39.0058081 25.6491876,39.3067514 C25.7376455,39.6076947 26.0160863,39.8103978 26.3267327,39.8 C26.4564816,39.7976937 26.5831462,39.7596601 26.6930693,39.69 L42.990099,29.27 C43.1579273,29.1733412 43.2773879,29.0094312 43.3188987,28.8188593 C43.3604094,28.6282874 43.3200885,28.428874 43.2079208,28.27 C43.1064838,28.1068046 42.9437302,27.9922589 42.7570216,27.952658 C42.570313,27.9130571 42.3756869,27.9518026 42.2178218,28.06 L29.7425743,36.06 C29.3564356,35.67 28.970297,35.3 28.5742574,34.97 C26.3454105,32.9430343 23.3269962,32.0457387 20.3663366,32.53 C19.6036732,31.2278617 18.5699128,30.1086978 17.3366337,29.25 C17.9207921,27.92 19.1584158,24.48 18.0594059,21.13 C17.2022362,18.7369562 15.382061,16.822283 13.049505,15.86 C12.990099,15.86 7.03960396,13.02 2.33663366,17.86 C0.951591482,19.3173132 0.123571407,21.2237943 0,23.24 L0,75 L65.6732673,75 L65.6732673,74.35 C65.7788331,71.9280727 64.8779221,69.5717057 63.1881188,67.85 L63.1881188,67.85 Z" id="Path" fill="#A8C5DD"></path>
                <path d="M35.6435644,50.71 C35.7717146,50.8253772 35.9372376,50.8894029 36.1089109,50.89 C36.3068484,50.8891094 36.4946734,50.8015541 36.6237624,50.65 L38.2277228,48.85 C38.990099,49.36 40.4752475,50.51 40.6534653,51.96 L38.5940594,53.28 C38.3339841,53.4477025 38.2149997,53.7688612 38.3021891,54.0678061 C38.3893785,54.366751 38.6617407,54.5714764 38.970297,54.5700079 C39.09982,54.5662431 39.2261152,54.5283205 39.3366337,54.46 L55.5841584,44 C55.7503774,43.9016189 55.867741,43.7369261 55.9073355,43.5464959 C55.9469299,43.3560656 55.9050739,43.1576023 55.7920792,43 C55.6963774,42.8304934 55.5340903,42.7098382 55.3454052,42.6679124 C55.1567202,42.6259865 54.9592811,42.6667106 54.8019802,42.78 L41.8514851,51.17 C41.3195964,49.775218 40.3536716,48.5925856 39.0990099,47.8 L49.3465347,36.24 C49.5815427,36.077769 49.6944397,35.7869019 49.6312027,35.5065834 C49.5679657,35.2262649 49.3414553,35.0135037 49.0600604,34.9701094 C48.7786654,34.9267151 48.4996136,35.061513 48.3564356,35.31 L35.5445545,49.73 C35.4273194,49.8725148 35.37176,50.0566627 35.3903828,50.2409912 C35.4090056,50.4253197 35.5002456,50.5943382 35.6435644,50.71 L35.6435644,50.71 Z" id="Path" fill="#A8C5DD"></path>
                <path d="M19.1584158,54.92 L19.2574257,54.92 C19.5976645,54.9193602 19.8871285,54.6693724 19.9405941,54.33 C20.3291676,51.7016848 19.6508611,49.0262297 18.0594059,46.91 C16.4801095,44.7788291 14.1246813,43.3715944 11.5148515,43 C11.1412614,42.9459985 10.7935632,43.2038232 10.7326733,43.58 C10.7044212,43.7633043 10.7504399,43.9503769 10.8603467,44.0990119 C10.9702535,44.2476469 11.134789,44.3453219 11.3168317,44.37 C13.5643779,44.6900517 15.592384,45.9031843 16.950495,47.74 C18.3214451,49.562341 18.9068459,51.8660719 18.5742574,54.13 C18.5211651,54.510667 18.7819523,54.8633486 19.1584158,54.92 L19.1584158,54.92 Z" id="Path" fill="#A8C5DD"></path>
                <path d="M21.1782178,61.38 C21.0128465,61.4594644 20.8866606,61.6035391 20.8287488,61.7790121 C20.7708369,61.954485 20.7861966,62.1462135 20.8712871,62.31 C21.0433912,62.6493845 21.4527814,62.7872125 21.7920792,62.62 C27.3144413,59.8369274 34.0257197,62.0681293 36.8316832,67.62 C36.9500002,67.8524976 37.1867241,67.9990374 37.4455446,68 C37.5551136,68.0019279 37.6636114,67.9779567 37.7623762,67.93 C38.0984005,67.7561749 38.2348639,67.3426908 38.0693069,67 C34.9227225,60.7591759 27.3812355,58.2499738 21.1782178,61.38 Z" id="Path" fill="#A8C5DD"></path>
                <path d="M79.4950495,22.1300411 C77.8936414,22.1335933 76.3721512,21.4237819 75.3366337,20.19 C74.4153629,19.0891158 73.9690614,17.6614008 74.0974322,16.225805 C74.2258031,14.7902093 74.9181495,13.4663587 76.019802,12.55 C78.3218685,10.6351531 81.7187793,10.9377469 83.6534653,13.23 C84.5747361,14.3308842 85.0210376,15.7585992 84.8926668,17.194195 C84.7642959,18.6297907 84.0719495,19.9536413 82.970297,20.87 L82.970297,20.87 C81.9941998,21.6889349 80.7639788,22.1349689 79.4950495,22.1300411 L79.4950495,22.1300411 Z M79.4950495,12.6599588 C78.5487194,12.6607242 77.6319327,12.9929369 76.9009901,13.6 C76.07173,14.2812019 75.5503119,15.2720358 75.4552188,16.3473526 C75.3601256,17.4226693 75.6994331,18.4911495 76.3960396,19.31 C77.8424432,21.0199763 80.3776304,21.2466907 82.0990099,19.82 C82.9267244,19.1404473 83.4480372,18.1524002 83.5449459,17.0795098 C83.6418545,16.0066193 83.3061645,14.9396077 82.6138614,14.12 C81.8365696,13.189276 80.6906908,12.6545568 79.4851485,12.6599588 L79.4950495,12.6599588 Z" id="Shape" fill="#2969F6"></path>
                <path d="M95.4554455,13.1 C95.3707426,13.1196756 95.2827227,13.1196756 95.1980198,13.1 C90.4088017,11.204394 86.8949947,6.98931605 85.8613861,1.9 C85.7977926,1.70710226 85.8216653,1.4956962 85.9266317,1.32221545 C86.031598,1.1487347 86.2069728,1.03083903 86.4059406,1 C86.5845708,0.964879718 86.7696921,1.00319408 86.920248,1.10644566 C87.0708039,1.20969723 87.1743496,1.36935149 87.2079208,1.55 C88.1576461,6.17912588 91.3562962,10.0115109 95.7128713,11.74 C96.0274016,11.8528488 96.2125834,12.1814169 96.148077,12.5121856 C96.0835707,12.8429543 95.7888532,13.0760516 95.4554455,13.06 L95.4554455,13.1 Z" id="Path" fill="#2969F6"></path>
                <path d="M48.8217822,37 L41.7722772,28.56 L46.7227723,24.45 C46.8647854,24.3267204 47.0501465,24.2667276 47.2366522,24.2836809 C47.4231579,24.3006343 47.5949344,24.3930909 47.7128713,24.54 C47.9616529,24.8410015 47.921759,25.2887007 47.6237624,25.54 L43.7722772,28.75 L48.990099,35 L52.8514851,31.78 C53.1495064,31.5287305 53.5927729,31.5690235 53.8415842,31.87 C53.9663549,32.0122377 54.0275211,32.2001515 54.0106558,32.3894186 C53.9937904,32.5786858 53.9003866,32.7525491 53.7524752,32.87 L48.8217822,37 Z" id="Path" fill="#032663"></path>
                <path d="M61.1881188,51.75 L54.1287129,43.3 L59.0792079,39.11 C59.2664983,38.9336527 59.5347974,38.8759686 59.7769624,38.9599834 C60.0191275,39.0439982 60.1956998,39.2560224 60.236167,39.5113861 C60.2766342,39.7667498 60.1744025,40.0238438 59.970297,40.18 L56.0792079,43.47 L61.3861386,49.77 L65.1881188,46.36 C65.462176,46.0854444 65.9041606,46.0854444 66.1782178,46.36 C66.3037688,46.4995721 66.3682543,46.6844028 66.3570719,46.8726386 C66.3458896,47.0608743 66.2599855,47.2365914 66.1188119,47.36 L61.1881188,51.75 Z" id="Path" fill="#032663"></path>
                <path d="M98.6732673,0.55 C98.4293829,0.304125331 98.1060731,0.15505142 97.7623762,0.13 C97.1683168,0.07 83.0891089,-1.17 74.990099,5.46 L64.4455446,14.29 C64.4455446,14.29 64.0594059,14.64 63.4554455,15.09 C61.4687823,13.9422824 58.9867096,14.1531798 57.2178218,15.62 L55.2376238,17.29 C52.6892978,16.7020509 50.4258929,15.2299267 48.8415842,13.13 L48.3960396,12.6 L41.5841584,18.27 L41.5841584,18.27 C41.5454724,18.3147248 41.5091195,18.3614548 41.4752475,18.41 L41.4158416,18.48 C41.4114611,18.5265618 41.4114611,18.5734382 41.4158416,18.62 C41.4113437,18.659871 41.4113437,18.700129 41.4158416,18.74 C41.4109188,18.7932175 41.4109188,18.8467825 41.4158416,18.9 C41.4158416,18.9 41.4158416,18.97 41.4158416,19 C41.4158416,19.03 41.4752475,19.1 41.4950495,19.15 C41.5113562,19.1822091 41.5312901,19.2124091 41.5544554,19.24 L41.5544554,19.24 L52.7524752,32.75 L52.7524752,32.75 L70.2277228,53.67 C70.278107,53.7131606 70.3310071,53.7532324 70.3861386,53.79 C70.4134564,53.813397 70.4433573,53.8335303 70.4752475,53.85 C70.5651657,53.8930475 70.6629162,53.9168784 70.7623762,53.92 C70.8379332,53.9304205 70.914542,53.9304205 70.990099,53.92 L71.1287129,53.84 L71.2079208,53.84 L71.2079208,53.84 L78,48.17 L77.5544554,47.63 C75.7357098,45.6872421 74.6798043,43.1419467 74.5841584,40.47 L76.5643564,38.83 C77.6974251,37.9175641 78.4126543,36.5775465 78.5445545,35.12 C78.6147631,34.3021139 78.5031323,33.4787182 78.2178218,32.71 C78.7524752,32.19 79.1485149,31.89 79.2079208,31.86 L89.7425743,23.06 C97.7128713,16.29 98.990099,2.21 99.049505,1.61 C99.0740882,1.21939654 98.937957,0.835864808 98.6732673,0.55 Z M58.0792079,16.69 C59.8304826,15.2378805 62.410447,15.4691087 63.8811881,17.21 C64.5835627,18.0422784 64.924771,19.1250232 64.8279182,20.2142267 C64.7310653,21.3034302 64.2043009,22.3074428 63.3663366,23 L53.3762376,31.33 L48.1089109,25 L58.0792079,16.69 Z M53.8910891,18.39 L47.2178218,24 L42.990099,18.9 L48.1980198,14.55 C49.7113313,16.328264 51.6762468,17.655917 53.8811881,18.39 L53.8910891,18.39 Z M76.049505,47.9 L70.8514851,52.24 L66.5544554,47.11 L73.2673267,41.49 C73.5714691,43.85065 74.5367019,46.0744982 76.049505,47.9 Z M75.6831683,37.67 L65.6633663,46 L60.3960396,39.76 L70.4356436,31.4 C72.1739621,29.9523696 74.7413286,30.1840501 76.1980198,31.92 C76.9159231,32.7437536 77.2730829,33.8259477 77.1881188,34.92 C77.0788613,36.0056241 76.5352104,36.9990388 75.6831683,37.67 Z M88.8217822,22 L78.3168317,30.77 C78.0435637,30.9743781 77.7823899,31.1947559 77.5346535,31.43 C77.4455446,31.3 77.3663366,31.15 77.2574257,31.02 C75.3027924,28.7044517 71.8717331,28.3975063 69.5445545,30.33 L59.5346535,38.7 L54.2673267,32.4 L64.2376238,24.07 C65.3545859,23.1400842 66.0564931,21.7972598 66.1867066,20.3411938 C66.3169201,18.8851277 65.8646023,17.4370082 64.9306931,16.32 C64.8217822,16.19 64.6930693,16.09 64.5742574,15.97 C65.0792079,15.59 65.3564356,15.33 65.3564356,15.33 L65.3564356,15.33 L75.8811881,6.54 C83.2772277,0.47 96.5841584,1.43 97.6633663,1.54 C97.5742574,2.08 96.2277228,15.7 88.8217822,22 Z" id="Shape" fill="#A8C5DD"></path>
            </g>
        </g>
    </g>
</svg>

<svg width="100" height="75" xmlns="http://www.w3.org/2000/svg"><g fill-rule="nonzero" fill="none"><path d="M63.188 67.85c-1.98-1.8-4.861-2.42-8.643-1.87a13.708 13.708 0 00-2.377-4l9.773-11a.695.695 0 00-.114-.88.678.678 0 00-.877-.04L48.14 64.49a.715.715 0 00.05 1 .738.738 0 00.464.17.7.7 0 00.515-.23l2.07-2.34c1.059 1.29 3.415 4.64 2.178 8a.696.696 0 00.023.533c.078.167.22.296.393.357.078.014.159.014.237 0a.683.683 0 00.644-.45 7.5 7.5 0 00.237-4.25c3.238-.44 5.694.07 7.298 1.53a7.133 7.133 0 012.108 4.8H1.386V23.28a7.242 7.242 0 011.98-4.37 8.06 8.06 0 019.139-1.78 7.625 7.625 0 014.287 4.45c.608 2.334.391 4.81-.614 7a11.923 11.923 0 00-3.841-1.19.704.704 0 00-.783.59.699.699 0 00.595.78 9.321 9.321 0 017.237 4.74c.02.112.076.213.159.29a10.203 10.203 0 011.069 3.42.696.696 0 00.693.63h.06a.698.698 0 00.633-.75 12.192 12.192 0 00-.93-3.21 8.598 8.598 0 016.653 2.18c.287.24.574.5.851.78l-2.624 1.68a.693.693 0 00-.3.787c.088.3.366.503.677.493a.708.708 0 00.366-.11L42.99 29.27a.696.696 0 00.218-1 .697.697 0 00-.99-.21l-12.475 8c-.387-.39-.773-.76-1.169-1.09a9.835 9.835 0 00-8.208-2.44 10.4 10.4 0 00-3.03-3.28c.585-1.33 1.822-4.77.723-8.12a8.961 8.961 0 00-5.01-5.27c-.059 0-6.01-2.84-10.712 2A8.57 8.57 0 000 23.24V75h65.673v-.65a8.738 8.738 0 00-2.485-6.5z" fill="#A8C5DD"/><path d="M35.644 50.71a.68.68 0 00.98-.06l1.604-1.8c.762.51 2.247 1.66 2.425 3.11l-2.059 1.32a.703.703 0 00-.292.788c.087.299.36.503.668.502a.737.737 0 00.367-.11L55.584 44a.695.695 0 00.208-1 .678.678 0 00-.99-.22l-12.95 8.39a6.885 6.885 0 00-2.753-3.37l10.248-11.56a.703.703 0 00-.287-1.27.69.69 0 00-.704.34L35.545 49.73a.695.695 0 00.099.98zM19.158 54.92h.1c.34 0 .63-.25.683-.59a9.934 9.934 0 00-1.882-7.42A9.883 9.883 0 0011.515 43a.694.694 0 00-.655 1.099c.11.149.275.246.457.271a8.5 8.5 0 015.633 3.37 8.564 8.564 0 011.624 6.39.699.699 0 00.584.79zM21.178 61.38a.686.686 0 00-.307.93.69.69 0 00.921.31c5.522-2.783 12.234-.552 15.04 5a.692.692 0 00.614.38.697.697 0 00.316-.07.703.703 0 00.307-.93c-3.146-6.24-10.688-8.75-16.89-5.62z" fill="#A8C5DD"/><path d="M79.495 22.13a5.414 5.414 0 01-5.398-5.904 5.406 5.406 0 011.923-3.676 5.428 5.428 0 017.633.68 5.426 5.426 0 01-.683 7.64 5.374 5.374 0 01-3.475 1.26zm0-9.47c-.946 0-1.863.333-2.594.94a4.026 4.026 0 00-.505 5.71 4.061 4.061 0 005.703.51 4.026 4.026 0 00.515-5.7 4.053 4.053 0 00-3.129-1.46h.01zM95.455 13.1a.569.569 0 01-.257 0c-4.79-1.896-8.303-6.11-9.337-11.2a.696.696 0 01.066-.578.683.683 0 01.479-.322.678.678 0 01.514.106.69.69 0 01.288.444c.95 4.63 4.148 8.462 8.505 10.19a.681.681 0 01-.258 1.32v.04z" fill="#2969F6"/><path d="M48.822 37l-7.05-8.44 4.95-4.11a.689.689 0 01.99.09.715.715 0 01-.088 1l-3.852 3.21L48.99 35l3.861-3.22a.698.698 0 01.99.09.694.694 0 01-.089 1L48.822 37zM61.188 51.75l-7.06-8.45 4.951-4.19a.688.688 0 01.698-.15.703.703 0 01.193 1.22l-3.89 3.29 5.306 6.3 3.802-3.41a.698.698 0 01.99 0 .704.704 0 01-.06 1l-4.93 4.39z" fill="#032663"/><path d="M98.673.55a1.43 1.43 0 00-.91-.42c-.595-.06-14.674-1.3-22.773 5.33l-10.544 8.83s-.387.35-.99.8a5.471 5.471 0 00-6.238.53l-1.98 1.67a11.158 11.158 0 01-6.396-4.16l-.446-.53-6.812 5.67a1.708 1.708 0 00-.109.14l-.06.07a.747.747 0 000 .14.535.535 0 000 .12.869.869 0 000 .16v.1c0 .03.06.1.08.15a.47.47 0 00.06.09l11.197 13.51 17.476 20.92c.05.043.103.083.158.12a.465.465 0 00.09.06c.09.043.187.067.286.07.076.01.153.01.228 0l.139-.08h.079L78 48.17l-.446-.54a11.056 11.056 0 01-2.97-7.16l1.98-1.64a5.385 5.385 0 001.98-3.71 5.56 5.56 0 00-.326-2.41c.534-.52.93-.82.99-.85l10.535-8.8c7.97-6.77 9.247-20.85 9.307-21.45a1.428 1.428 0 00-.377-1.06zM58.08 16.69a4.13 4.13 0 015.802.52 4.097 4.097 0 01-.515 5.79l-9.99 8.33L48.11 25l9.97-8.31zm-4.188 1.7L47.218 24l-4.228-5.1 5.208-4.35a12.756 12.756 0 005.683 3.84h.01zM76.05 47.9l-5.199 4.34-4.297-5.13 6.713-5.62a12.562 12.562 0 002.783 6.41zm-.367-10.23L65.663 46l-5.267-6.24 10.04-8.36a4.09 4.09 0 015.762.52 4.086 4.086 0 01.99 3 4.01 4.01 0 01-1.505 2.75zM88.822 22l-10.505 8.77a8.724 8.724 0 00-.782.66c-.09-.13-.169-.28-.278-.41a5.487 5.487 0 00-7.712-.69l-10.01 8.37-5.268-6.3 9.97-8.33a5.506 5.506 0 00.693-7.75c-.108-.13-.237-.23-.356-.35.505-.38.782-.64.782-.64l10.525-8.79c7.396-6.07 20.703-5.11 21.782-5-.089.54-1.435 14.16-8.841 20.46z" fill="#A8C5DD"/></g></svg>
